!!!Melodie: eigene
!!!Typ: Lied
**kern	**silbe	**silbe	**silbe	**silbe	**silbe	**silbe	**silbe	**silbe	**silbe	**silbe
*clefG2	*lang:DE	*lang:DE	*lang:DE	*lang:DE	*lang:DE	*lang:DE	*lang:DE	*lang:DE	*lang:DE	*lang:DE
*k[f#]	*	*	*	*	*	*	*	*	*	*
4g	Nun	Sein’	Er	da#	Wie	so	Die	bei	Sei	Der
=	=	=	=	=	=	=	=	=	=	=
2g	lob’,	Wohl#	hat	#zu	sich	tut	Got#	sei#	Lob	wol#
4f#	mein’	#tat	uns	sein	ein	der	#tes#	#ner	und	#le
2e	Seel’,	tut	wis#	Güt’	Mann	Herr	#gnad'	lie#	Preis	in
4d	den	er	#sen	ohn’	er#	uns	al#	#ben	mit	uns
=	=	=	=	=	=	=	=	=	=	=
(2g	Her#	meh#	las#	Ma#	#bar#	Ar#	#lei#	G’mei#	Eh#	meh#
4a)	|	|	|	|	|	|	|	|	|	|
2b	#ren	#ren,	#sen	#ßen,	#men	#men,	#ne	#ne,	#ren	#ren,
4b	was	ver#	sein	es	ob	so	steht	die,	Gott	was
=	=	=	=	=	=	=	=	=	=	=
2b	in	#giss	herr#	man#	ih#	wir	fest	stets	Va#	er
4b	mir	das	#lich'	#gelt	#rer	ihn	und	in	#ter,	aus
2b	ist,	nicht,	Recht	an	jung#	kind#	bleibt	sei#	Sohn	Gna#
4a	den	O	und	Er#	#en	#lich	in	#ner	und	#den
=	=	=	=	=	=	=	=	=	=	=
2g	Na#	Her#	sein	#bar#	Kind#	fürch#	E#	Furcht	heil#	uns
4f#	#men	#ze	Ge#	#mung	#lein	#ten	#wig#	be#	#'gem	ver#
2g	sein.	mein.	#richt,	nicht;	klein,	rein.	#keit	#reit,	Geist!	#heißt,
=:|	=	=	=	=	=	=	=	=	=	=
4g	.	Hat	.	sein’	.	Er	.	die	.	dass
=	=	=	=	=	=	=	=	=	=	=
2g	.	dir	.	Zorn	.	kennt	.	sei#	.	wir
4b	.	dein’	.	lässt	.	das	.	#nen	.	ihm
2a	.	Sünd’	.	er	.	arm’	.	Bund	.	fest
4b	.	ver#	.	wohl	.	Ge#	.	be#	.	ver#
=	=	=	=	=	=	=	=	=	=	=
(2g	.	#ge#	.	fah#	.	#mäch#	.	#hal#	.	#trau#
4f#)	.	|	.	|	.	|	.	|	.	|
2e	.	#ben,	.	#ren,	.	#te	.	#ten.	.	#en,
4e	.	und	.	straft	.	und	.	Er	.	uns
2a	.	heilt	.	nicht	.	weiß,	.	herrscht	.	grün#
4f#	.	dein	.	nach	.	wir	.	im	.	#den
4g	.	Schwach#	.	uns#	.	sind	.	Him#	.	ganz
2e	.	#heit	.	#'rer	.	nur	.	#mel#	.	auf
=	=	=	=	=	=	=	=	=	=	=
(2.d	.	groß,	.	Schuld,	.	Staub,	.	#reich.	.	ihn,
4d)	.	|	.	|	.	|	.	|	.	|
4r	.	%	.	%	.	%	.	%	.	%
4d	.	er#	.	die	.	ein	.	Ihr	.	von
=	=	=	=	=	=	=	=	=	=	=
2g	.	#rett'	.	Gnad’	.	bald	.	star#	.	Her#
4g	.	dein	.	tut	.	ver#	.	#ken	.	#zen
2a	.	ar#	.	er	.	#welkt'	.	En#	.	auf
4a	.	#mes	.	nicht	.	Ge#	.	#gel,	.	ihn
=	=	=	=	=	=	=	=	=	=	=
2.b	.	Le#	.	spa#	.	#schlech#	.	wal#	.	bau#
2g	.	#ben,	.	#ren,	.	#te,	.	#tet	.	#en,
4g	.	nimmt	.	den	.	ein’	.	sein’s	.	dass
=	=	=	=	=	=	=	=	=	=	=
2cc	.	dich	.	Schwa#	.	Blum’	.	Lobs	.	un#
4cc	.	in	.	#chen	.	und	.	und	.	#ser
2b	.	sei#	.	ist	.	fal#	.	dient	.	Mut
4b	.	#nen	.	er	.	#lend'	.	zu#	.	und
=	=	=	=	=	=	=	=	=	=	=
(2.a	.	Schoß,	.	hold;	.	Laub:	.	#gleich	.	Sinn
4a)	.	|	.	|	.	|	.	|	.	|
4r	.	%	.	%	.	%	.	%	.	%
4a	.	mit	.	sein	.	der	.	dem	.	ihm
=	=	=	=	=	=	=	=	=	=	=
2b	.	rei#	.	Güt'	.	Wind	.	gro#	.	al#
4b	.	#chem	.	ist	.	nur	.	#ßen	.	#le
2cc	.	Trost	.	hoch	.	drü#	.	Herr’n	.	#zeit
4cc	.	be#	.	er#	.	#ber	.	zu	.	an#
=	=	=	=	=	=	=	=	=	=	=
2.dd	.	#schüt#	.	#ha#	.	we#	.	Eh#	.	#han#
2g	.	#tet,	.	#ben	.	#het,	.	#ren	.	#gen.
4b	.	ver#	.	ob	.	so	.	und	.	D’rauf
=	=	=	=	=	=	=	=	=	=	=
2a	.	#jüngt	.	den',	.	ist	.	treibt	.	sin#
4f#	.	dem	.	die	.	es	.	sein	.	#gen
4g	.	Ad#	.	fürch#	.	nim#	.	hei#	.	wir
2e	.	#ler	.	#ten	.	#mer	.	#lig's	.	zur
=	=	=	=	=	=	=	=	=	=	=
(2.d	.	gleich;	.	ihn;	.	da;	.	Wort!	.	Stund’:
4d)	.	|	.	|	.	|	.	|	.	|
4r	.	%	.	%	.	%	.	%	.	%
4d	.	der	.	so	.	al#	.	Mein’	.	A#
=	=	=	=	=	=	=	=	=	=	=
2g	.	Herr	.	fern	.	#so	.	Seel’	.	#men,
4f#	.	schafft	.	der	.	der	.	soll	.	wir
2e	.	Recht,	.	Ost	.	Mensch	.	auch	.	werd’n’s
4d	.	be#	.	vom	.	ver#	.	ver#	.	er#
=	=	=	=	=	=	=	=	=	=	=
2.a	.	#hü#	.	A#	.	#ge#	.	#meh#	.	#lan#
2a	.	#tet	.	#bend,	.	#het,	.	#ren	.	#gen,
4b	.	die	.	ist	.	sein	.	sein	.	glaub’n
=	=	=	=	=	=	=	=	=	=	=
2cc	.	leid’n	.	uns#	.	En#	.	Lob	.	wir
4b	.	in	.	#'re	.	#de	.	an	.	von
(4g	.	sei#	.	Sünd’	.	ist	.	al#	.	Her#
4b)	.	|	.	|	.	|	.	|	.	|
4a	.	#nem	.	da#	.	ihm	.	#lem	.	#zens#
=	=	=	=	=	=	=	=	=	=	=
2.g	.	Reich.	.	hin.	.	nah.	.	Ort.	.	#grund.
==	==	==	==	==	==	==	==	==	==	==
*-	*-	*-	*-	*-	*-	*-	*-	*-	*-	*-
